!!!OTL: Da yiezhu
!!!ARE: Asia, China,ÿZhejiang Yuyao
!! III, 621, 2)
!!!SCT: C1904
!!!YEM: Copyright 1995, estate of Helmut Schaffrath.
**kern
*ICvox
*Ivox
*M2/4
*k[f#]
*G:
{8dd
8ee
8dd
8b
=1
8a
8a
4r}
=2
{8e
8g
8e
8g
=3
8a
8a
4r}
=4
{8dd
8ee
8dd
8b
=5
8a
8dd
8b
8g
=6
8a
8a
4r}
=7
{8dd
8dd
8dd
8dd
=8
8dd
8dd
8dd
8dd}
=9
{8dd
8cc
8b
8a
=10
8g
8g
4r}
=11
{8g
8b
8a
8g
=12
8e
8a
8f#
8e
=13
4d
4r}
==
!!!AGN: Haozi
!!!AMT: simple duple
!!!AIN: vox
!!!EED: Helmut Schaffrath
!!!EEV: 1.0
*-
